poi/svg/2402.svg

<?xml version="1.0" encoding="UTF-8" standalone="no"?>
<svg
   xmlns:dc="http://purl.org/dc/elements/1.1/"
   xmlns:cc="http://creativecommons.org/ns#"
   xmlns:rdf="http://www.w3.org/1999/02/22-rdf-syntax-ns#"
   xmlns:svg="http://www.w3.org/2000/svg"
   xmlns="http://www.w3.org/2000/svg"
   xmlns:sodipodi="http://sodipodi.sourceforge.net/DTD/sodipodi-0.dtd"
   xmlns:inkscape="http://www.inkscape.org/namespaces/inkscape"
   inkscape:version="1.0 (4035a4fb49, 2020-05-01)"
   sodipodi:docname="2402.svg"
   id="svg20"
   version="1.2"
   viewBox="0 0 42.519639 42.519639"
   height="14.999999mm"
   width="14.999999mm">
  <metadata
     id="metadata24">
    <rdf:RDF>
      <cc:Work
         rdf:about="">
        <dc:format>image/svg+xml</dc:format>
        <dc:type
           rdf:resource="http://purl.org/dc/dcmitype/StillImage" />
        <dc:title>Qt SVG Document</dc:title>
      </cc:Work>
    </rdf:RDF>
  </metadata>
  <sodipodi:namedview
     inkscape:current-layer="svg20"
     inkscape:window-maximized="0"
     inkscape:window-y="0"
     inkscape:window-x="0"
     inkscape:cy="28.346482"
     inkscape:cx="28.346482"
     inkscape:zoom="5.8410537"
     showgrid="false"
     id="namedview22"
     inkscape:window-height="480"
     inkscape:window-width="1034"
     inkscape:pageshadow="2"
     inkscape:pageopacity="0"
     guidetolerance="10"
     gridtolerance="10"
     objecttolerance="10"
     borderopacity="1"
     bordercolor="#666666"
     pagecolor="#ffffff" />
  <title
     id="title2">Qt SVG Document</title>
  <desc
     id="desc4">Generated with Qt</desc>
  <defs
     id="defs6" />
  <g
     transform="translate(5.25984,5.25984)"
     id="g18"
     stroke-linejoin="bevel"
     stroke-linecap="square"
     fill-rule="evenodd"
     stroke-width="1"
     stroke="#000000"
     fill="none">
    <g
       id="g10"
       font-style="normal"
       font-weight="400"
       font-size="7.8px"
       font-family="'MS Shell Dlg 2'"
       stroke="none"
       fill-opacity="1"
       fill="#ec1d24">
      <path
         id="path8"
         d="M 37.2598,16 C 37.2598,27.7415 27.7415,37.2598 16,37.2598 4.25851,37.2598 -5.25984,27.7415 -5.25984,16 -5.25984,4.25851 4.25851,-5.25984 16,-5.25984 27.7415,-5.25984 37.2598,4.25851 37.2598,16"
         fill-rule="evenodd"
         vector-effect="non-scaling-stroke" />
    </g>
    <g
       id="g14"
       font-style="normal"
       font-weight="400"
       font-size="7.8px"
       font-family="'MS Shell Dlg 2'"
       transform="translate(16,11.4646)"
       stroke="none"
       fill-opacity="0.94902"
       fill="#ffffff">
      <path
         id="path12"
         d="m 0.390137,1.48535 -3.779297,1.6377 c 0.13997,-1.49772 0.5319,-2.746992 1.17578,-3.747806 0.64388,-1.000814 1.385743,-1.543214 2.225587,-1.627194 v -4.74512 h 0.167969 v 0.56689 H 3.74951 v 2.01563 H 0.180176 v 2.1626 c 0.909834,0 1.697184,0.5074 2.362064,1.522214 0.66487,1.014811 1.0673,2.271076 1.20727,3.768796 L 0.390137,1.48535 M -10.8638,11.4165 h -1.4277 v -0.2939 h 0.168 l 0.0839,-5.16508 h -0.0839 L -12.2915,5.5166 V 5.13867 h 0.168 V 3.98389 h -0.168 V 3.71094 h 4.09423 V 3.98389 H -8.38623 V 4.4458 h 0.18896 v 0.08399 h 2.87647 0.08398 v 0.27294 h 0.16797 v 0.98682 h 0.44092 l 0.08398,0.33594 h 0.12598 l -0.12598,5.29101 h -4.8291 l 0.08399,-5.45898 h -0.25196 l -0.16796,-0.5249 h -0.90282 l -0.168,0.5249 h -0.2729 l 0.1889,5.45898 M 5.11426,5.78955 H 5.55518 V 4.80273 H 5.72314 V 4.52979 H 5.80713 8.68359 V 4.4458 H 8.87256 V 3.98389 H 8.68359 V 3.71094 h 4.09421 v 0.27295 h -0.1679 v 1.15478 h 0.1679 V 5.5166 l -0.084,0.44092 h -0.1679 l 0.084,5.16508 h 0.1679 v 0.2939 h -1.4277 l 0.189,-5.45898 h -0.273 l -0.168,-0.5249 h -0.9028 l -0.168,0.5249 H 9.7334 L 9.94336,11.4165 H 4.98828 L 4.9043,6.12549 H 5.11426 V 5.78955 m 7.99954,6.04685 v 1.3438 H 4.9043 v -0.336 H 4.31641 V 12.2773 H 3.58154 V 11.8364 H 2.59473 V 6.29346 H 2.51074 L 2.40576,5.95752 H 1.16699 V 6.29346 H 0.999023 L 1.08301,11.8364 H -0.59668 L -0.512695,6.29346 H -0.59668 L -0.680664,5.95752 H -1.91943 l -0.10498,0.33594 h -0.12598 l 0.12598,5.54294 h -0.98682 v 0.4409 h -0.62988 v 0.5669 H -4.25 v 0.336 h -8.3774 v -1.3438 h 9.07027 V 6.29346 H -3.64111 L -3.7251,5.95752 H -4.08203 V 4.9707 H -4.25 V 4.80273 H -4.41797 L -4.62793,4.52979 0.26416,2.38818 5.21924,4.52979 4.98828,4.80273 H 4.82031 V 4.9707 H 4.65234 V 5.95752 H 4.31641 V 6.29346 H 4.12744 l 0.08399,5.54294 h 8.90237 m -17.74173,1.9947 h 9.84717 v 0.5039 h -9.84717 v -0.5039 m 0.98682,-0.8189 h 7.95752 v 0.3359 h -7.95752 v -0.3359 m 7.05468,-0.7349 v 0.378 h -6.15185 v -0.378 h 6.15185"
         fill-rule="evenodd"
         vector-effect="none" />
    </g>
    <g
       id="g16"
       font-style="normal"
       font-weight="400"
       font-size="7.8px"
       font-family="'MS Shell Dlg 2'"
       stroke="none"
       fill-opacity="1"
       fill="#ec1d24" />
  </g>
</svg>

<?xml version="1.0" encoding="UTF-8" standalone="no"?>
<svg width="11.2889mm" height="11.2889mm"
 viewBox="0 0 32 32"
 xmlns="http://www.w3.org/2000/svg" xmlns:xlink="http://www.w3.org/1999/xlink"  version="1.2" baseProfile="tiny">
<title>Qt SVG Document</title>
<desc>Generated with Qt</desc>
<defs>
</defs>
<g fill="none" stroke="black" stroke-width="1" fill-rule="evenodd" stroke-linecap="square" stroke-linejoin="bevel" >

<g fill="#ec1d24" fill-opacity="1" stroke="none" transform="matrix(1,0,0,1,0,0)"
font-family="MS Shell Dlg 2" font-size="7.8" font-weight="400" font-style="normal" 
>
<path vector-effect="non-scaling-stroke" fill-rule="evenodd" d="M37.2598,16 C37.2598,27.7415 27.7415,37.2598 16,37.2598 C4.25851,37.2598 -5.25984,27.7415 -5.25984,16 C-5.25984,4.25851 4.25851,-5.25984 16,-5.25984 C27.7415,-5.25984 37.2598,4.25851 37.2598,16 "/>
</g>

<g fill="#ffffff" fill-opacity="0.94902" stroke="none" transform="matrix(1,0,0,1,16,11.4646)"
font-family="MS Shell Dlg 2" font-size="7.8" font-weight="400" font-style="normal" 
>
<path vector-effect="none" fill-rule="evenodd" d="M0.390137,1.48535 L-3.38916,3.12305 C-3.24919,1.62533 -2.85726,0.376058 -2.21338,-0.624756 C-1.5695,-1.62557 -0.827637,-2.16797 0.012207,-2.25195 L0.012207,-6.99707 L0.180176,-6.99707 L0.180176,-6.43018 L3.74951,-6.43018 L3.74951,-4.41455 L0.180176,-4.41455 L0.180176,-2.25195 C1.09001,-2.25195 1.87736,-1.74455 2.54224,-0.729736 C3.20711,0.285075 3.60954,1.54134 3.74951,3.03906 L0.390137,1.48535 M-10.8638,11.4165 L-12.2915,11.4165 L-12.2915,11.1226 L-12.1235,11.1226 L-12.0396,5.95752 L-12.1235,5.95752 L-12.2915,5.5166 L-12.2915,5.13867 L-12.1235,5.13867 L-12.1235,3.98389 L-12.2915,3.98389 L-12.2915,3.71094 L-8.19727,3.71094 L-8.19727,3.98389 L-8.38623,3.98389 L-8.38623,4.4458 L-8.19727,4.4458 L-8.19727,4.52979 L-5.3208,4.52979 L-5.23682,4.52979 L-5.23682,4.80273 L-5.06885,4.80273 L-5.06885,5.78955 L-4.62793,5.78955 L-4.54395,6.12549 L-4.41797,6.12549 L-4.54395,11.4165 L-9.37305,11.4165 L-9.28906,5.95752 L-9.54102,5.95752 L-9.70898,5.43262 L-10.6118,5.43262 L-10.7798,5.95752 L-11.0527,5.95752 L-10.8638,11.4165 M5.11426,5.78955 L5.55518,5.78955 L5.55518,4.80273 L5.72314,4.80273 L5.72314,4.52979 L5.80713,4.52979 L8.68359,4.52979 L8.68359,4.4458 L8.87256,4.4458 L8.87256,3.98389 L8.68359,3.98389 L8.68359,3.71094 L12.7778,3.71094 L12.7778,3.98389 L12.6099,3.98389 L12.6099,5.13867 L12.7778,5.13867 L12.7778,5.5166 L12.6938,5.95752 L12.5259,5.95752 L12.6099,11.1226 L12.7778,11.1226 L12.7778,11.4165 L11.3501,11.4165 L11.5391,5.95752 L11.2661,5.95752 L11.0981,5.43262 L10.1953,5.43262 L10.0273,5.95752 L9.7334,5.95752 L9.94336,11.4165 L4.98828,11.4165 L4.9043,6.12549 L5.11426,6.12549 L5.11426,5.78955 M13.1138,11.8364 L13.1138,13.1802 L4.9043,13.1802 L4.9043,12.8442 L4.31641,12.8442 L4.31641,12.2773 L3.58154,12.2773 L3.58154,11.8364 L2.59473,11.8364 L2.59473,6.29346 L2.51074,6.29346 L2.40576,5.95752 L1.16699,5.95752 L1.16699,6.29346 L0.999023,6.29346 L1.08301,11.8364 L-0.59668,11.8364 L-0.512695,6.29346 L-0.59668,6.29346 L-0.680664,5.95752 L-1.91943,5.95752 L-2.02441,6.29346 L-2.15039,6.29346 L-2.02441,11.8364 L-3.01123,11.8364 L-3.01123,12.2773 L-3.64111,12.2773 L-3.64111,12.8442 L-4.25,12.8442 L-4.25,13.1802 L-12.6274,13.1802 L-12.6274,11.8364 L-3.55713,11.8364 L-3.55713,6.29346 L-3.64111,6.29346 L-3.7251,5.95752 L-4.08203,5.95752 L-4.08203,4.9707 L-4.25,4.9707 L-4.25,4.80273 L-4.41797,4.80273 L-4.62793,4.52979 L0.26416,2.38818 L5.21924,4.52979 L4.98828,4.80273 L4.82031,4.80273 L4.82031,4.9707 L4.65234,4.9707 L4.65234,5.95752 L4.31641,5.95752 L4.31641,6.29346 L4.12744,6.29346 L4.21143,11.8364 L13.1138,11.8364 M-4.62793,13.8311 L5.21924,13.8311 L5.21924,14.335 L-4.62793,14.335 L-4.62793,13.8311 M-3.64111,13.0122 L4.31641,13.0122 L4.31641,13.3481 L-3.64111,13.3481 L-3.64111,13.0122 M3.41357,12.2773 L3.41357,12.6553 L-2.73828,12.6553 L-2.73828,12.2773 L3.41357,12.2773"/>
</g>

<g fill="#ec1d24" fill-opacity="1" stroke="none" transform="matrix(1,0,0,1,0,0)"
font-family="MS Shell Dlg 2" font-size="7.8" font-weight="400" font-style="normal" 
>
</g>
</g>
</svg>
